X:509
T:Rödöjen
O:Röros, Norge
N:Troligen ursprungligen från Rödön i Jämtland
Z:Nedtecknad av Erik Ronström, till abc av Jon Magnusson 090114
R:Polska
M:3/4 
L:1/8  
K:D
MA>G F>A d>d|e>a f>d B>b|g>f e>d c>d|e>a f<d dc/2B/2|
A>G F>A d>d|e>a f>d B>b|g>f e>d c>d|[1 (3 ece d4:|[2 (3 ece d3f|]
g>a (3bgb a>a|e>f (3geg Tf2|fg/2f/2 (3eaf d>d|cd/2c/2 (3BGB A>G|
F>G A<F D>c|d>e f<d B>b|g>f e>d c>d|[1 (3 ece d3f:|[2 (3 ece d4|]
(:musicend:)
(:music:)
